X: 1
T: Elizabeth Kelly's
M: 6/8
L: 1/8
R: jig
K: Cmaj
AGE G2E|c2E- EGE|DED D2E|GED D2D|
AGE G2E|c2E DEG|A2d BAG|A3 A2B:|
|:c2B c2d|ecA ABc|BAG GAB|dBG GAB|
c2B c2d|ecA ABc|BAG GAB|A3 A2B:|
